!!!!SEGMENT: pl-kk--kk-i-625--001-003_lisinski-karol--vesperae-ex-a-beatus-vir.krn
!!!cenid: 18xx:4602
!!!COM: Lisiński, Karol
!!!COM-rismID: pe50053612
!!!CDT:
!!!CNT: Polish
!!!OPR: Vesperae ex A
!!!OTL: Beatus vir
!!!OMV: 003
!!!PDT:
!!!AGN: Sacred; Vespers
!!!YEC: Copyright 2022 Narodowy Instytut Fryderyka Chopina (https://polishscores.org)
!!!YEM: License CC-BY-4.0 (https://creativecommons.org/licenses/by/4.0)
!!!SMS-siglum: PL-Kk
!!!SMS-shelfmark: Kk.I.625
!!!SMS-variant: Violino Primo: PL-Kk Kk.I.625: 26; Violino Secondo: PL-Kk Kk.I.625: 36
!!!SMS-altvar: Violino Primo: PL-Kk Kk.I.625: 21; Violino Secondo: PL-Kk Kk.I.625: 31
!!!SMS-shelfwork: 001-003 M
!!!NIFC-rismSourceID: 1001210166
!!!NIFC-rismChildID: 1001210166
!!!NIFC-islandoraID: pl-kk:20012
!!!URL-pdf-islandora: https://repozytorium.nifc.pl/islandora/object/pl-kk:20012/datastream/PDF/view
!!!URL-scan: https://polish.musicsources.pl/pl/lokalizacje/galeria/rekopisy/7259/2 @EN{Scan on Polish Music Sources Website} @PL{Skany w portalu Dziedzictwo Muzyki Polskiej w otwartym dostępie}
!!!IIIF:
!!!ONB-nifc: UWAGA: Części Nieszporów: 1. Dixit Dominus, 2. Confitebor, 3. Beatus vir, 4. Laudate pueri, 5. In exitu, 6. Magnificat. Gloria wchodzi w ramy powyższych części. Uwaga: Partia Organo na skanach 44-46 i 2. Uwaga: Violino Primo i Secondo wg drugich odpisów spisanych ręką tą samą co reszta partii (s. 25-28 i 35-38). Proszę uzupełnić pola SMS:variant i SMS:altvar.
!!!AIN: 1 alto 1 bass 1 canto 2 clrno 1 organ 1 tenor 2 violn
!!!key:
**kern	**fba	**kern	**kern	**kern	**text	**kern	**text	**kern	**text	**kern	**text	**kern	**kern
*part9	*	*part8	*part7	*part6	*part6	*part5	*part5	*part4	*part4	*part3	*part3	*part2	*part1
*staff9	*	*staff8	*staff7	*staff6	*staff6	*staff5	*staff5	*staff4	*staff4	*staff3	*staff3	*staff2	*staff1
*I"Organo	*	*I"Violino Secundo	*I"Violino Primo	*I"Baſso.	*	*I"Tenore	*	*I"Alto.	*	*I"Canto	*	*I"Clarino Secundo	*I"Clarino Primo
*I'org	*	*I'vl 2	*I'vl 1	*I'B	*	*I'T	*	*I'A	*	*I'S	*	*I'clno 2	*I'clno 1
*Iorgan	*	*Ivioln	*Ivioln	*Ibass	*	*Itenor	*	*Ialto	*	*Icanto	*	*Iclrno	*Iclrno
*ICklav	*	*ICstr	*ICstr	*ICvox	*	*ICvox	*	*ICvox	*	*ICvox	*	*ICbras	*ICbras
*clefF4	*	*clefG2	*clefG2	*clefF4	*	*clefC4	*	*clefC3	*	*clefC1	*	*clefG2	*clefG2
*	*	*	*	*	*	*	*	*	*	*	*	*ITrd1c2	*ITrd1c2
*k[b-]	*	*k[b-]	*k[b-]	*k[b-]	*	*k[b-]	*	*k[b-]	*	*k[b-]	*	*k[b-]	*k[b-]
*F:	*	*F:	*F:	*F:	*	*F:	*	*F:	*	*F:	*	*F:	*F:
*M4/4	*	*M4/4	*M4/4	*M4/4	*	*M4/4	*	*M4/4	*	*M4/4	*	*M4/4	*M4/4
*met(c)	*	*met(c)	*met(c)	*met(c)	*	*met(c)	*	*met(c)	*	*met(c)	*	*met(c)	*met(c)
=1	=1	=1	=1	=1	=1	=1	=1	=1	=1	=1	=1	=1	=1
!	!	!	!LO:TX:a:B:t=poco vivace	!	!	!	!	!	!	!	!	!	!LO:TX:a:t=Beatus vir Tacet
!LO:TX:b:t=Beatus Vir	!	!	!LO:TX:b:t=Beatus vir	!	!	!LO:TX:b:t=Beatus Vir.	!	!LO:TX:b:t=Beatus Vir	!	!LO:TX:b:t=Beatus Vir	!	!LO:TX:a:t=Beatus Tacet	!
4F\	.	4a/	4cc\	4r	.	00r	.	00r	.	00r	.	1ryy	1ryy
4r	.	4r	4r	8r	.	.	.	.	.	.	.	.	.
.	.	.	.	8C/	Be-	.	.	.	.	.	.	.	.
4r	.	4r	4r	8F\	-a-	.	.	.	.	.	.	.	.
.	.	.	.	8A\	-tus	.	.	.	.	.	.	.	.
8r	.	8r	8r	8G\	Vir	.	.	.	.	.	.	.	.
8C/	.	8e/	8g/	8B-\	qui	.	.	.	.	.	.	.	.
=2	=2	=2	=2	=2	=2	=2	=2	=2	=2	=2	=2	=2	=2
8F\L	.	4c/	4a/	16A\LL	ti-	.	.	.	.	.	.	1ryy	1ryy
.	.	.	.	16G\JJ	.	.	.	.	.	.	.	.	.
8A\J	.	.	.	8F\	-met	.	.	.	.	.	.	.	.
8G\L	.	8r	8r	8r	.	.	.	.	.	.	.	.	.
8B-\J	4 2	8e/	8g/	8C/	qui	.	.	.	.	.	.	.	.
8A\L	6	4c/	4a/	8F\	ti-	.	.	.	.	.	.	.	.
8F\J	.	.	.	8A\	-met	.	.	.	.	.	.	.	.
*	*	*	*	*	*ij	*	*	*	*	*	*	*	*
8r	.	4r	4r	8G\	ti-	.	.	.	.	.	.	.	.
8C/	.	.	.	8B-\	-met	.	.	.	.	.	.	.	.
*	*	*	*	*	*Xij	*	*	*	*	*	*	*	*
=3	=3	=3	=3	=3	=3	=3	=3	=3	=3	=3	=3	=3	=3
8F\L	.	8r	8r	16A\	Do-	.	.	.	.	.	.	1ryy	1ryy
.	.	.	.	16G\	-mi-	.	.	.	.	.	.	.	.
16F\L	.	16a/LL	16cc\LL	8F\	-num	.	.	.	.	.	.	.	.
16G\JJ	.	16g/JJ	16b-\JJ	.	.	.	.	.	.	.	.	.	.
8A\L	.	4f/	4a/	8r	.	.	.	.	.	.	.	.	.
!	!	!	!	!LO:LB:g=original	!	!	!	!	!	!	!	!	!
8F\J	.	.	.	16c\	in	.	.	.	.	.	.	.	.
.	.	.	.	16c\	man-	.	.	.	.	.	.	.	.
8B-\L	4 2	2r	2r	8d\	-da-	.	.	.	.	.	.	.	.
8B-\	6	.	.	8G\	-tis	.	.	.	.	.	.	.	.
8A\	6	.	.	8c\	e-	.	.	.	.	.	.	.	.
8A\J	6	.	.	8F\	-jus	.	.	.	.	.	.	.	.
=4	=4	=4	=4	=4	=4	=4	=4	=4	=4	=4	=4	=4	=4
8F\L	6	8cc\L	8gg\L	8B-\	vo-	.	.	.	.	.	.	1ryy	1ryy
16F\L	6	8cc\J	8ff\J	8A\	-let	.	.	.	.	.	.	.	.
16G\JJ	.	.	.	.	.	.	.	.	.	.	.	.	.
8A\L	.	4r	4r	8r	.	.	.	.	.	.	.	.	.
8B-\J	.	.	.	(16A\LL	vo-	.	.	.	.	.	.	.	.
.	.	.	.	16F\JJ	.	.	.	.	.	.	.	.	.
8c\L	.	2r	2r	8E\)	.	.	.	.	.	.	.	.	.
8B-\J	.	.	.	16F\LL	-let	.	.	.	.	.	.	.	.
.	.	.	.	16G\JJ	.	.	.	.	.	.	.	.	.
!LO:LB:g=original	!	!	!	!	!	!	!	!	!	!	!	!	!
!LO:TX:t=P:problem:mixed beam	!	!	!	!	!	!	!	!	!	!	!	!	!
8c\L	.	.	.	8A\L	ni-	.	.	.	.	.	.	.	.
8C/J	.	.	.	16G\L	.	.	.	.	.	.	.	.	.
.	.	.	.	16F\JJ	.	.	.	.	.	.	.	.	.
=5	=5	=5	=5	=5	=5	=5	=5	=5	=5	=5	=5	=5	=5
8F\L	.	8r	8r	4F\	-mis	00r	.	00r	.	00r	.	1ryy	1ryy
16F\L	.	16a/LL	16cc\LL	.	.	.	.	.	.	.	.	.	.
16G\JJ	.	16g/JJ	16b-\JJ	.	.	.	.	.	.	.	.	.	.
!	!	!LO:LB:g=original	!	!	!	!	!	!	!	!	!	!	!
8A\L	.	4f/	4a/	8r	.	.	.	.	.	.	.	.	.
8F\J	.	.	.	8A\	Po-	.	.	.	.	.	.	.	.
!	!	!	!LO:LB:g=original	!	!	!	!	!	!	!	!	!	!
8E\L	6	2r	2r	8G\	-tens	.	.	.	.	.	.	.	.
8E\J	.	.	.	16A\LL	in	.	.	.	.	.	.	.	.
.	.	.	.	16Bn\JJ	.	.	.	.	.	.	.	.	.
8r	.	.	.	8c\	ter-	.	.	.	.	.	.	.	.
8E\	.	.	.	8G\	-ra	.	.	.	.	.	.	.	.
!	!	!	!	!LO:PB:g=original	!	!	!	!	!	!	!	!	!
=6	=6	=6	=6	=6	=6	=6	=6	=6	=6	=6	=6	=6	=6
4D\	.	1r	1r	8F\	e-	.	.	.	.	.	.	1ryy	1ryy
.	.	.	.	16d\LL	-rit	.	.	.	.	.	.	.	.
.	.	.	.	16c\JJ	.	.	.	.	.	.	.	.	.
8GG/L	.	.	.	16Bn\LL	se-	.	.	.	.	.	.	.	.
.	.	.	.	16A\JJ	.	.	.	.	.	.	.	.	.
8BBn/J	65	.	.	16G\LL	-mem	.	.	.	.	.	.	.	.
.	.	.	.	16F\JJ	.	.	.	.	.	.	.	.	.
8C\L	.	.	.	8F\	e-	.	.	.	.	.	.	.	.
16C\L	.	.	.	8E\	-jus	.	.	.	.	.	.	.	.
16D\JJ	.	.	.	.	.	.	.	.	.	.	.	.	.
8E\L	.	.	.	8r	.	.	.	.	.	.	.	.	.
8G\J	n	.	.	16GG/	ge-	.	.	.	.	.	.	.	.
.	.	.	.	16GG/	-ne-	.	.	.	.	.	.	.	.
=7	=7	=7	=7	=7	=7	=7	=7	=7	=7	=7	=7	=7	=7
8E\L	6	2r	2r	8C/	-ra-	.	.	.	.	.	.	1ryy	1ryy
8C\J	.	.	.	8E\	-ti-	.	.	.	.	.	.	.	.
8r	.	.	.	8D/	-o	.	.	.	.	.	.	.	.
8G\	n	.	.	8F\	re-	.	.	.	.	.	.	.	.
8C\L	.	4r	4r	8E\	-cto-	.	.	.	.	.	.	.	.
8E\	.	.	.	8C/	-rum	.	.	.	.	.	.	.	.
8D\	.	8r	8r	8C/	be-	.	.	.	.	.	.	.	.
8F\J	4 2	8g/	8dd\	16BBn/	-ne-	.	.	.	.	.	.	.	.
.	.	.	.	16BB/	-di-	.	.	.	.	.	.	.	.
!LO:LB:g=original	!	!	!	!LO:LB:g=original	!	!	!	!	!	!	!	!	!
=8	=8	=8	=8	=8	=8	=8	=8	=8	=8	=8	=8	=8	=8
!LO:TX:t=P:problem:mixed beam	!	!	!	!	!	!	!	!	!	!	!	!	!
8E/L	6	8g/L	8cc\L	8C/L	-ce-	.	.	.	.	.	.	1ryy	1ryy
8F/	.	8a/	8cc\	8D/J	.	.	.	.	.	.	.	.	.
8G/	n	8g/	8cc\	8E/L	.	.	.	.	.	.	.	.	.
8GG\J	.	8d/J	8bn\J	16D/L	.	.	.	.	.	.	.	.	.
.	.	.	.	16C/JJ	.	.	.	.	.	.	.	.	.
!	!	!	!LO:TX:t=P:problem:mixed beam	!	!	!	!	!	!	!	!	!	!
8C\L	.	8e/L	16cc\LL	4C/	tur	.	.	.	.	.	.	.	.
.	.	.	16c/	.	.	.	.	.	.	.	.	.	.
8D\	.	8f/	16c/	.	.	.	.	.	.	.	.	.	.
.	.	.	16c/JJ	.	.	.	.	.	.	.	.	.	.
8E\	.	8g/	16c/LL	4r	.	.	.	.	.	.	.	.	.
.	.	.	16b-X/	.	.	.	.	.	.	.	.	.	.
8C\J	.	8e/J	16b-/	.	.	.	.	.	.	.	.	.	.
.	.	.	16b-/JJ	.	.	.	.	.	.	.	.	.	.
=9	=9	=9	=9	=9	=9	=9	=9	=9	=9	=9	=9	=9	=9
4F\	.	4f/	4a/	8c\	glo-	0r	.	0r	.	0r	.	1ryy	1ryy
.	.	.	.	16A\	-ri-	.	.	.	.	.	.	.	.
.	.	.	.	16G\	-a	.	.	.	.	.	.	.	.
8r	.	4r	8r	8F\	et	.	.	.	.	.	.	.	.
8C/	.	.	8ff\	8c\	di-	.	.	.	.	.	.	.	.
!	!	!	!LO:TX:t=P:problem:mixed beam	!	!	!	!	!	!	!	!	!	!
8D\L	.	2r	16ff\LL	8.c\	-vi-	.	.	.	.	.	.	.	.
.	.	.	16f/J	.	.	.	.	.	.	.	.	.	.
8D\	7	.	8ff\J	.	.	.	.	.	.	.	.	.	.
.	.	.	.	16B-\	-ti-	.	.	.	.	.	.	.	.
!	!	!	!LO:TX:t=P:problem:mixed beam	!	!	!	!	!	!	!	!	!	!
8D\	6:	.	16f/LL	8B-\	-ae	.	.	.	.	.	.	.	.
.	.	.	16ff\	.	.	.	.	.	.	.	.	.	.
8D\J	.	.	16ff\	8B-\	in	.	.	.	.	.	.	.	.
.	.	.	16ff\JJ	.	.	.	.	.	.	.	.	.	.
=10	=10	=10	=10	=10	=10	=10	=10	=10	=10	=10	=10	=10	=10
8C/L	7	1r	8ee\L	8B-\	Do-	.	.	.	.	.	.	1ryy	1ryy
8C/	6	.	8ee\	8A\	-mo	.	.	.	.	.	.	.	.
8BB-/	7	.	8dd\	8A\	Do-	.	.	.	.	.	.	.	.
8BB-/J	6	.	8dd\J	16G\LL	-mo	.	.	.	.	.	.	.	.
.	.	.	.	16F\JJ	.	.	.	.	.	.	.	.	.
!	!	!	!LO:LB:g=original	!	!	!	!	!	!	!	!	!	!
!	!	!	!LO:TX:t=P:problem:mixed beam	!	!	!	!	!	!	!	!	!	!
8C\L	.	.	16ee\LL	8E\	e-	.	.	.	.	.	.	.	.
.	.	.	16c/	.	.	.	.	.	.	.	.	.	.
8D\	.	.	16c/	8C/	-jus	.	.	.	.	.	.	.	.
.	.	.	16c/JJ	.	.	.	.	.	.	.	.	.	.
!	!	!	!	!LO:LB:g=original	!	!	!	!	!	!	!	!	!
8E\	.	.	8c/	8r	.	.	.	.	.	.	.	.	.
8C\J	.	.	8r	16C/	et	.	.	.	.	.	.	.	.
.	.	.	.	16C/	ju-	.	.	.	.	.	.	.	.
=11	=11	=11	=11	=11	=11	=11	=11	=11	=11	=11	=11	=11	=11
8AA/L	6	2r	2r	8F\	-sti-	1r	.	1r	.	1r	.	1ryy	1ryy
8FF/J	.	.	.	16A\	-ti-	.	.	.	.	.	.	.	.
.	.	.	.	16A\	-a	.	.	.	.	.	.	.	.
8r	.	.	.	8G\	e-	.	.	.	.	.	.	.	.
8C/	.	.	.	8B-\	-jus	.	.	.	.	.	.	.	.
8F\L	.	4r	4r	8A\L	ma-	.	.	.	.	.	.	.	.
8A\J	6	.	.	8F\J	.	.	.	.	.	.	.	.	.
8G\L	.	8r	8r	8F\	-net	.	.	.	.	.	.	.	.
8B-\J	2 4	8c/	8g/	8E\	in	.	.	.	.	.	.	.	.
!LO:PB:g=original	!	!LO:LB:g=original	!	!	!	!	!	!	!	!	!	!	!
=12	=12	=12	=12	=12	=12	=12	=12	=12	=12	=12	=12	=12	=12
8A\L	6	4c/	4a/	8F\	sae-	2r	.	2r	.	2r	.	1ryy	1ryy
8B-\J	6	.	.	16G\	-cu-	.	.	.	.	.	.	.	.
.	.	.	.	16G\	-lum	.	.	.	.	.	.	.	.
!LO:TX:t=P:problem:mixed beam	!	!	!	!	!	!	!	!	!	!	!	!	!
8c\L	.	4r	4r	8A\	sae-	.	.	.	.	.	.	.	.
8C/J	.	.	.	16G\LL	-cu-	.	.	.	.	.	.	.	.
.	.	.	.	16F\JJ	.	.	.	.	.	.	.	.	.
!LO:TX:a:i:t=Tutti	!	!	!	!	!	!	!	!	!	!	!	!	!
8F\L	.	8a\L	16ff\LL	4F\	-li	4r	.	4r	.	4r	.	.	.
.	.	.	16cc\	.	.	.	.	.	.	.	.	.	.
8G\	.	8a\	16ff\	.	.	.	.	.	.	.	.	.	.
.	.	.	16aa\JJ	.	.	.	.	.	.	.	.	.	.
8A\	.	8cc\	16ff\LL	8r	.	8r	.	8r	.	8r	.	.	.
.	.	.	16cc\	.	.	.	.	.	.	.	.	.	.
8F\J	.	8cc\J	16ff\	8F\	e-	8A\	E-	8a\	E-	8cc\	E-	.	.
.	.	.	16aa\JJ	.	.	.	.	.	.	.	.	.	.
=13	=13	=13	=13	=13	=13	=13	=13	=13	=13	=13	=13	=13	=13
8E\L	.	8cc/L	16gg\LL	8E\	-xor-	8c\	-xor-	8g\	-xor-	8cc\	-xor-	1ryy	1ryy
.	.	.	16cc\	.	.	.	.	.	.	.	.	.	.
8E\	6	8g/	16cc\	8E\	-tum	8c\	-tum	8g\	-tum	8cc\	-tum	.	.
.	.	.	16cc\JJ	.	.	.	.	.	.	.	.	.	.
!	!	!	!	!LO:LB:g=original	!	!	!	!	!	!	!	!	!
8E\	.	8g/	16cc\LL	8E\	est	8G/	e(st)	8g\	e(st)	8cc\	e(st)	.	.
.	.	.	16cc\	.	.	.	.	.	.	.	.	.	.
8E\J	.	8g/J	16cc\	8E\	in	8c\	in	8g\	in	8cc\	in	.	.
.	.	.	16cc\JJ	.	.	.	.	.	.	.	.	.	.
8C\L	.	8cc\L	16gg\LL	8C/	te-	8c\	te-	8g\	te-	8cc\	te-	.	.
.	.	.	16ee\	.	.	.	.	.	.	.	.	.	.
8C\	.	8cc\	16gg\	16C/	-ne-	16c\	-ne-	16g\	-ne-	16cc\	-ne-	.	.
.	.	.	16bb-\JJ	16C/	-bris	16c\	-bris	16g\	-bris	16cc\	-bris	.	.
8E\	.	8cc\	16gg\LL	8E\	lu-	8G/	lu-	8g\	lu-	8cc\	lu-	.	.
.	.	.	16ee\	.	.	.	.	.	.	.	.	.	.
8C\J	7	8cc\J	16gg\	8C/	-men	8c\	-men	8g\	-men	8b-\	-men	.	.
.	.	.	16bb-\JJ	.	.	.	.	.	.	.	.	.	.
!	!	!	!LO:LB:g=original	!	!	!	!	!	!	!	!	!	!
=14	=14	=14	=14	=14	=14	=14	=14	=14	=14	=14	=14	=14	=14
8F\L	.	8cc\L	16aa\LL	8F\	rec-	8c\	rec-	8f\	rec-	8a\	rec-	1ryy	1ryy
.	.	.	16ff\	.	.	.	.	.	.	.	.	.	.
8G\	.	8a\	16ff\	8F\	-tis	8c\	-tis	8f\	-tis	8a\	-tis	.	.
.	.	.	16ff\JJ	.	.	.	.	.	.	.	.	.	.
!	!	!	!	!	!	!LO:LB:g=original	!	!	!	!LO:LB:g=original	!	!	!
8A\	6	8cc\	16ff\LL	8r	.	8r	.	8r	.	8r	.	.	.
.	.	.	16ff\	.	.	.	.	.	.	.	.	.	.
8F\J	.	8a\J	16ff\	8F\	mi-	8c\	mi-	8a\	mi-	8cc\	mi-	.	.
.	.	.	16ff\JJ	.	.	.	.	.	.	.	.	.	.
!	!	!	!	!	!	!	!	!LO:LB:g=original	!	!	!	!	!
8A\L	6	8cc\L	16cc\LL	8A\	-se-	8c\	-se-	8a\	-se-	8cc\	-se-	.	.
.	.	.	16ff\	.	.	.	.	.	.	.	.	.	.
8G\	.	8b-\	16ee\	8G\	-ri-	8B-\	-ri-	8a\	-ri-	8ff\	-ri-	.	.
.	.	.	16ff\JJ	.	.	.	.	.	.	.	.	.	.
8A\	.	8cc\	16cc\LL	8A\	-cors	8c\	-cors	8a\	-cors	8ff\	-cors	.	.
.	.	.	16ff\	.	.	.	.	.	.	.	.	.	.
8F\J	-7	8a\J	16ee\	8F\	et	8A\	et	8a\	et	8ee-X\	et	.	.
.	.	.	16ff\JJ	.	.	.	.	.	.	.	.	.	.
=15	=15	=15	=15	=15	=15	=15	=15	=15	=15	=15	=15	=15	=15
8B-\L	.	16f/LL	16dd\LL	4.B-\	mi-	4B-\	mi-	4.f\	mi-	4.dd\	mi-	1ryy	1ryy
.	.	16f/	16b-\	.	.	.	.	.	.	.	.	.	.
8B-\	.	16f/	16b-\	.	.	.	.	.	.	.	.	.	.
.	.	16b-/JJ	16dd\JJ	.	.	.	.	.	.	.	.	.	.
8B-\	.	16b-\LL	16dd\LL	.	.	4d\	-se-	.	.	.	.	.	.
.	.	16dd\	16ff\	.	.	.	.	.	.	.	.	.	.
8B-\J	.	16dd\	16ff\	8B-\	-se-	.	.	8f\	-se-	8dd\	-se-	.	.
.	.	16ff\JJ	16bb-\JJ	.	.	.	.	.	.	.	.	.	.
8Bn\L	6	8dd\L	16dd\LL	8Bn\L	-ra-	4d\	-ra-	4g\	-ra-	8gg\L	-ra-	.	.
.	.	.	16gg\	.	.	.	.	.	.	.	.	.	.
8A\	.	8cc\	16ff\	8A\J	.	.	.	.	.	8dd\J	.	.	.
.	.	.	16gg\JJ	.	.	.	.	.	.	.	.	.	.
8B\	.	8dd\	16dd\LL	8B\	-tor	8d\	-tor	8g\	-tor	8dd\	-tor	.	.
.	.	.	16gg\	.	.	.	.	.	.	.	.	.	.
8G\J	.	8bn\J	16ff\	8G\	et	8Bn\	et	8g\	et	8dd\	et	.	.
.	.	.	16gg\JJ	.	.	.	.	.	.	.	.	.	.
!LO:LB:g=original	!	!LO:LB:g=original	!	!LO:LB:g=original	!	!	!	!	!	!	!	!	!
=16	=16	=16	=16	=16	=16	=16	=16	=16	=16	=16	=16	=16	=16
!LO:TX:t=P:problem:mixed beam	!	!	!	!	!	!	!	!	!	!	!	!	!
8c\L	.	8cc\L	8ee\L	8c\L	ju-	4.c\	ju-	8g\L	ju-	8ee\L	ju-	1ryy	1ryy
8F\	.	8cc\	8dd\	8F\J	.	.	.	8a\J	.	8dd\J	.	.	.
!	!	!	!	!LO:TX:t=P:problem:mixed beam	!	!	!	!	!	!	!	!	!
8G\	4	8cc\	8.dd\	8G\L	.	.	.	4g\	.	4dd\	.	.	.
8G/\J	#	8bn\J	.	8AA/J	.	8Bn\	.	.	.	.	.	.	.
.	.	.	16dd\Jk	.	.	.	.	.	.	.	.	.	.
!LO:TX:t=P:problem:mixed beam	!	!	!	!	!	!	!	!	!	!	!	!	!
8C/L	.	16cc\LL	16cc\LL	4C/	-stus	4c\	-stus	4e\	-stus	4cc\	-stus	.	.
.	.	16ee\	16ee\	.	.	.	.	.	.	.	.	.	.
8c\	.	16ee\	16ee\	.	.	.	.	.	.	.	.	.	.
.	.	16ee\JJ	16gg\JJ	.	.	.	.	.	.	.	.	.	.
!	!	!	!LO:LB:g=original	!	!	!	!	!	!	!	!	!	!
8c\	.	16ee\LL	16gg\LL	8r	.	8r	.	8r	.	8r	.	.	.
.	.	16ee\	16ccc\	.	.	.	.	.	.	.	.	.	.
8c\J	.	16ee\	16ccc\	8c\	Ju-	8e\	ju-	8g\	ju-	8cc\	Ju-	.	.
.	.	16ee\JJ	16gg\JJ	.	.	.	.	.	.	.	.	.	.
=17	=17	=17	=17	=17	=17	=17	=17	=17	=17	=17	=17	=17	=17
8c\L	.	16ee\LL	16gg\LL	8c\	-cun-	8c\	-cun-	8g\	-cun-	8ee\	-cun-	1ryy	1ryy
.	.	16gg\	16ee\	.	.	.	.	.	.	.	.	.	.
8c\	.	16gg\	16ee\	8c\	-dus	8c\	-dus	8g\	-dus	8ee\	-dus	.	.
.	.	16ee\JJ	16cc\JJ	.	.	.	.	.	.	.	.	.	.
8c\	.	16ee\LL	16cc\LL	8c\	ho-	8c\	ho-	8g\	ho-	8ee\	ho-	.	.
.	.	16ee\	16cc\	.	.	.	.	.	.	.	.	.	.
8c\J	.	16ee\	16cc\	16c\	-mo	16c\	-mo	16g\	-mo	16ee\	-mo	.	.
.	.	16ee\JJ	16cc\JJ	16c\	qui	16c\	qui	16g\	qui	16ee\	qui	.	.
!	!	!	!	!	!	!	!	!	!	!LO:LB:g=original	!	!	!
8A\L	-	16ee\LL	16cc\LL	8A\	mi-	8c\	mi-	8a\	mi-	8ee\	mi-	.	.
.	.	16cc\	16ee\	.	.	.	.	.	.	.	.	.	.
8A\	.	16cc\	16ee\	8A\	-se-	8c\	-se-	8a\	-se-	8ee\	-se-	.	.
.	.	16ee\JJ	16aa\JJ	.	.	.	.	.	.	.	.	.	.
!	!	!	!	!	!	!LO:LB:g=original	!	!LO:LB:g=original	!	!	!	!	!
8A\	.	16ee\LL	16aa\LL	8A\	-re-	8c\	-re-	8a\	-re-	8ee\	-re-	.	.
.	.	16aa\	16ee\	.	.	.	.	.	.	.	.	.	.
8A\J	.	16aa\	16ee\	16A\	-tur	16c\	-tur	16a\	-tur	16ee\	-tur	.	.
.	.	16ee\JJ	16cc\JJ	16A\	et	16c\	et	16a\	et	16ee\	et	.	.
=18	=18	=18	=18	=18	=18	=18	=18	=18	=18	=18	=18	=18	=18
8E\L	6	16ee\LL	16cc\LL	8E\	com-	8c\	com-	8g\	com-	8ee\	com-	1ryy	1ryy
.	.	16gg\	16ee\	.	.	.	.	.	.	.	.	.	.
8E\	.	16gg\	16ee\	8E\	-mo-	8c\	-mo-	8g\	-mo-	8ee\	-mo-	.	.
.	.	16ee\JJ	16gg\JJ	.	.	.	.	.	.	.	.	.	.
8E\	.	16ee\LL	16gg\LL	8E\	-dat	8c\	-dat	8g\	-dat	8ee\	-dat	.	.
.	.	16ee\	16ccc\	.	.	.	.	.	.	.	.	.	.
8E\J	.	16ee\	16ccc\	8E\	dis-	8c\	dis-	8g\	dis-	8g\	dis-	.	.
.	.	16cc\JJ	16gg\JJ	.	.	.	.	.	.	.	.	.	.
8F\L	98	8a\L	16gg\LL	8F\	-po-	8c\	-po-	8g\	-po-	8a\	-po-	.	.
.	.	.	16ff\	.	.	.	.	.	.	.	.	.	.
8G\	7 n	8bn\	16ff\	16G\	-net	16Bn\	-net	16f\	-net	16bn\	-net	.	.
.	.	.	16ff\JJ	16G\	ser-	16B\	ser-	16f\	ser-	16b\	ser-	.	.
!	!	!	!	!LO:LB:g=original	!	!	!	!	!	!	!	!	!
8A\	6	8cc\	16ff\LL	8A\	-mo-	8A/	-mo-	8f\	-mo-	8cc\	-mo-	.	.
.	.	.	16ff\	.	.	.	.	.	.	.	.	.	.
8Bn\J	56	8dd\J	16ff\	8Bn\	-nes	8G/	-nes	8f\	-nes	8dd\	-nes	.	.
.	.	.	16ff\JJ	.	.	.	.	.	.	.	.	.	.
!	!	!LO:LB:g=original	!	!	!	!	!	!	!	!	!	!	!
=19	=19	=19	=19	=19	=19	=19	=19	=19	=19	=19	=19	=19	=19
8c\L	.	16g/LL	16ee\LL	8c\	su-	8G/	su-	8e\	su-	8ee\	su-	1ryy	1ryy
.	.	16g/	16ee\	.	.	.	.	.	.	.	.	.	.
8Bn\	.	16g/	16gg\	8Bn\	-os	8B-\	-os	8g\	-os	8dd\	-os	.	.
.	.	16g/JJ	16gg\JJ	.	.	.	.	.	.	.	.	.	.
!	!	!	!LO:LB:g=original	!	!	!	!	!	!	!	!	!	!
8c\	.	16g/LL	16ee\LL	8c\	in	8G/	in	8g\	in	8ee\	in	.	.
.	.	16g/	16ee\	.	.	.	.	.	.	.	.	.	.
8G\J	.	16bn/	16gg\	8G\	ju-	8Bn\	ju-	8g\	ju-	8dd\	ju-	.	.
.	.	16b/JJ	16gg\JJ	.	.	.	.	.	.	.	.	.	.
!LO:TX:t=P:problem:mixed beam	!	!	!	!	!	!	!	!	!	!	!	!	!
8A\L	3	8a/L	16cc\LL	8A\L	-di-	4A/	-di-	8e\L	-di-	8cc\L	-di-	.	.
.	.	.	16cc\	.	.	.	.	.	.	.	.	.	.
8F\	6	8a/	16dd\	8F\	.	.	.	8f\J	.	8dd\J	.	.	.
.	.	.	16dd\JJ	.	.	.	.	.	.	.	.	.	.
8G\	.	8d/	8.bn\L	8G\J	.	8G/	-ci-	8.d\	.	8.bn\	.	.	.
8GG/J	.	8d/J	.	8GG/	-ci-	8G/	.	.	.	.	.	.	.
.	.	.	16cc\Jk	.	.	.	.	16e\	-ci-	16cc\	-ci-	.	.
!	!	!	!	!	!	!LO:LB:g=original	!	!LO:LB:g=original	!	!LO:LB:g=original	!	!	!
=20	=20	=20	=20	=20	=20	=20	=20	=20	=20	=20	=20	=20	=20
!	!	!LO:TX:t=P:problem:mixed beam	!	!	!	!	!	!	!	!	!	!	!
8C\L	.	8e/L	8cc\L	8C/	-o	4G/	-o	8e\	-o	8cc\	-o	1ryy	1ryy
8F\	.	8cc\	16aa\L	16F\	qu-	.	.	16cc\	qu-	16cc\	qu-	.	.
.	.	.	16aa\JJ	16F\	-ia	.	.	16cc\	-ia	16cc\	-ia	.	.
8E\	6:	8cc\	16gg\LL	8E\	in	16c\	qu-	8cc\	in	8cc\	in	.	.
.	.	.	16gg\	.	.	16c\	-ia	.	.	.	.	.	.
8D\J	.	8cc\J	16ff\	8D/	ae-	8c\	in	8cc\	ae-	8cc\	ae-	.	.
.	.	.	16ff\JJ	.	.	.	.	.	.	.	.	.	.
!LO:LB:g=original	!	!	!	!	!	!	!	!	!	!	!	!	!
8C\L	.	8cc\L	16ee\LL	8C/L	-ter-	8c\	ae-	8cc\	-ter-	4cc\	-ter-	.	.
.	.	.	16ee\	.	.	.	.	.	.	.	.	.	.
8F\	.	8cc\	16aa\	8F/J	.	8c\	-ter-	8cc\	-num	.	.	.	.
.	.	.	16aa\JJ	.	.	.	.	.	.	.	.	.	.
8E\	6:	8cc\	16gg\LL	8E\	-num	8c\	-num	4cc\	n(on)	8cc\	-num	.	.
.	.	.	16gg\	.	.	.	.	.	.	.	.	.	.
8D\J	.	8cc\J	16ff\	8D\	n(on)	8c\	n(on)	.	.	8cc\	n(on)	.	.
.	.	.	16ff\JJ	.	.	.	.	.	.	.	.	.	.
=21	=21	=21	=21	=21	=21	=21	=21	=21	=21	=21	=21	=21	=21
!LO:TX:t=P:problem:mixed beam	!	!	!	!	!	!	!	!	!	!	!	!	!
8C\L	.	8cc\L	8ee\L	8C/	com-	8c\	com-	8g\	com-	8ee\	com-	1ryy	1ryy
8F\	6 5	8cc\	8dd\	8F\	-mo-	8c\	-mo-	8a\	-mo-	8dd\	-mo-	.	.
!	!	!	!	!LO:LB:g=original	!	!	!	!	!	!	!	!	!
8G\	5 4	8cc\	8.dd\	8G\	-ve-	8.c\	-ve-	8.g\	-ve-	8.dd\	-ve-	.	.
8GG\J	.	8bn\J	.	8GG/	-bi-	.	.	.	.	.	.	.	.
.	n	.	16cc\Jk	.	.	16Bn\	-bi-	16g\	-bi-	16cc\	-bi-	.	.
!LO:TX:a:t=|	!	!	!	!	!	!	!	!	!	!	!	!	!
8C\L	.	8cc/L	8cc/L	8C/	-tur	4c\	-tur	4g\	-tur	4cc\	-tur	.	.
!LO:TX:a:t=|	!	!	!	!	!	!	!	!	!	!	!	!	!
8E\	.	8e/	8e/	8r	.	.	.	.	.	.	.	.	.
!LO:TX:a:t=|	!	!	!	!	!	!	!	!	!	!	!	!	!
8F\	.	8f/	8f/	4r	.	4r	.	4r	.	8r	.	.	.
!LO:TX:a:t=|	!	!	!	!	!	!	!	!	!	!	!	!	!
8G\J	.	8g/J	8g/J	.	.	.	.	.	.	16g\	in	.	.
.	.	.	.	.	.	.	.	.	.	16g\	me-	.	.
=22	=22	=22	=22	=22	=22	=22	=22	=22	=22	=22	=22	=22	=22
8E\L	6	4cc\	8cc\L	00r	.	00r	.	0r	.	8cc\	-mo-	1ryy	1ryy
8C\J	5	.	8ee\	.	.	.	.	.	.	8ee\	-ri-	.	.
8r	.	8r	8dd\	.	.	.	.	.	.	8dd\	-a	.	.
8GG/	.	8d/	8ff\J	.	.	.	.	.	.	8ff\	ae-	.	.
!	!	!LO:LB:g=original	!LO:PB:g=original	!	!	!	!	!	!	!LO:PB:g=original	!	!	!
8C\L	.	8e/L	8ee\L	.	.	.	.	.	.	8ee\	-ter-	.	.
8E\	.	8g/	8cc\J	.	.	.	.	.	.	8cc\	-na	.	.
8D\	.	8f/	8r	.	.	.	.	.	.	8r	.	.	.
8F\J	4 2	8e/J	8g/	.	.	.	.	.	.	16g\	e-	.	.
.	.	.	.	.	.	.	.	.	.	16g\	-rit	.	.
=23	=23	=23	=23	=23	=23	=23	=23	=23	=23	=23	=23	=23	=23
!	!	!	!LO:TX:t=P:problem:brakujący takt	!	!	!	!	!	!	!	!	!	!
8E\L	6	4e/	8cc\Lyy	.	.	.	.	.	.	8cc\	Ju-	1ryy	1ryy
8C\J	.	.	8ee\yy	.	.	.	.	.	.	8ee\	-stus	.	.
*	*	*	*	*	*	*	*	*	*	*	*ij	*	*
8BBn/L	6	8r	8dd\yy	.	.	.	.	.	.	8dd\	Ju-	.	.
8GG/J	.	8d/	8ff\Jyy	.	.	.	.	.	.	8ff\	-stus	.	.
8C\L	.	8e/L	8ee\Lyy	.	.	.	.	.	.	8ee\	Ju-	.	.
8E\	6	8g/	8cc\Jyy	.	.	.	.	.	.	8cc\	-stus	.	.
8D\	.	8f/	8ryy	.	.	.	.	.	.	8r	.	.	.
*	*	*	*	*	*	*	*	*	*	*	*Xij	*	*
8F\J	4 2	8d/J	8g/yy	.	.	.	.	.	.	16g\	ab	.	.
.	.	.	.	.	.	.	.	.	.	16g\	au-	.	.
=24	=24	=24	=24	=24	=24	=24	=24	=24	=24	=24	=24	=24	=24
8E/L	6	8e/L	8cc\L	.	.	.	.	1r	.	8cc\	-di-	1ryy	1ryy
8E/	.	8g/	8g\	.	.	.	.	.	.	8g\	-ti-	.	.
8BBn/	6	8g/	8dd\	.	.	.	.	.	.	8dd\	-o-	.	.
8BB/J	.	8g/J	8g\J	.	.	.	.	.	.	8g\	-ne	.	.
!LO:LB:g=original	!	!	!	!	!	!	!	!	!	!	!	!	!
8C\L	.	8e/L	8ee\L	.	.	.	.	.	.	8ee\L	ma-	.	.
8D\	6\	8f/	8bn\	.	.	.	.	.	.	8bn\J	.	.	.
8E\	.	8g/	8cc\	.	.	.	.	.	.	8cc\	-la	.	.
8C\J	.	8e/J	8cc\J	.	.	.	.	.	.	8cc\	n(on)	.	.
!	!	!	!	!	!	!	!	!	!	!LO:LB:g=original	!	!	!
=25	=25	=25	=25	=25	=25	=25	=25	=25	=25	=25	=25	=25	=25
!LO:TX:t=P:problem:mixed beam	!	!	!	!	!	!	!	!	!	!	!	!	!
8F\L	6 5	8a/L	8cc\L	.	.	.	.	2r	.	8cc\	/n(on)/	1ryy	1ryy
8D\	.	8g/	8dd\	.	.	.	.	.	.	8dd\	ti-	.	.
8G\	n	8g/	8.bn\	.	.	.	.	.	.	4bn\	-me-	.	.
8GG/J	.	8d/J	.	.	.	.	.	.	.	.	.	.	.
.	.	.	16b\Jk	.	.	.	.	.	.	.	.	.	.
!LO:TX:t=P:problem:mixed beam	!	!	!	!	!	!	!	!	!	!	!	!	!
8C/L	.	4e/	4cc\	.	.	.	.	4r	.	4cc\	-bit	.	.
16c\L	.	.	.	.	.	.	.	.	.	.	.	.	.
16B-X\JJ	.	.	.	.	.	.	.	.	.	.	.	.	.
8A\L	.	8r	8r	.	.	.	.	8r	.	4r	.	.	.
!	!	!	!	!	!	!	!	!LO:TX:a:i:t=Solo	!	!	!	!	!
8G\J	.	8e/	8b-X\	.	.	.	.	8c/	pa-	.	.	.	.
=26	=26	=26	=26	=26	=26	=26	=26	=26	=26	=26	=26	=26	=26
4F\	.	4f/	4a/	00r	.	00r	.	8f\L	-ra-	00r	.	1ryy	1ryy
.	.	.	.	.	.	.	.	8a\J	.	.	.	.	.
!	!	!	!	!	!	!	!	!LO:LB:g=original	!	!	!	!	!
8r	.	8r	8r	.	.	.	.	8g\	-tum	.	.	.	.
8C/	.	8e/	8bb-\	.	.	.	.	8b-\	cor	.	.	.	.
8F\L	.	4f/	8aa\L	.	.	.	.	8a\	e-	.	.	.	.
8A\J	6	.	8ff\J	.	.	.	.	8f\	-jus	.	.	.	.
8G\L	.	8r	8r	.	.	.	.	8r	.	.	.	.	.
8B-\J	4 2	8g/	8ee\	.	.	.	.	8e\	spe-	.	.	.	.
!	!	!LO:LB:g=original	!	!	!	!	!	!	!	!	!	!	!
=27	=27	=27	=27	=27	=27	=27	=27	=27	=27	=27	=27	=27	=27
8A\L	.	4a/	8ff\L	.	.	.	.	8f\L	-ra-	.	.	1ryy	1ryy
8F\J	.	.	8aa\	.	.	.	.	8a\J	.	.	.	.	.
8BBn/L	6	8cc\L	8gg\	.	.	.	.	8g\	-re	.	.	.	.
8GG/J	.	8g\J	8bb-\J	.	.	.	.	8b-\	in	.	.	.	.
!	!	!	!LO:LB:g=original	!	!	!	!	!	!	!	!	!	!
8F\L	.	8a\L	8aa\L	.	.	.	.	16a\	Do-	.	.	.	.
.	.	.	.	.	.	.	.	16g\	-mi-	.	.	.	.
8A\	.	8cc\	16gg\L	.	.	.	.	8f\	-no	.	.	.	.
.	.	.	16ff\JJ	.	.	.	.	.	.	.	.	.	.
8G\	.	8b-\	8r	.	.	.	.	8r	.	.	.	.	.
8B-\J	.	8g\J	8ee\	.	.	.	.	16e\	con-	.	.	.	.
.	.	.	.	.	.	.	.	16e\	-fir-	.	.	.	.
=28	=28	=28	=28	=28	=28	=28	=28	=28	=28	=28	=28	=28	=28
8A\L	.	8a\L	8ff\L	.	.	.	.	8f\	-ma-	.	.	1ryy	1ryy
8F\	.	8cc\	8aa\	.	.	.	.	8a\	-tum	.	.	.	.
8E\	6	8cc\	8gg\	.	.	.	.	8g\	e(st)	.	.	.	.
8C\J	.	8g\J	8bb-\J	.	.	.	.	8b-\	cor	.	.	.	.
!LO:LB:g=original	!	!	!	!	!	!	!	!	!	!	!	!	!
8F\L	.	4a/	8aa\L	.	.	.	.	8a\	e-	.	.	.	.
16F\L	.	.	8ff\J	.	.	.	.	8f\	-jus	.	.	.	.
16G\JJ	.	.	.	.	.	.	.	.	.	.	.	.	.
!	!	!	!	!	!	!	!	!LO:LB:g=original	!	!	!	!	!
8A\L	.	8r	8r	.	.	.	.	8r	.	.	.	.	.
8F\J	.	8a/	8ff\	.	.	.	.	8f\	non	.	.	.	.
=29	=29	=29	=29	=29	=29	=29	=29	=29	=29	=29	=29	=29	=29
*	*	*	*	*	*	*	*	*	*ij	*	*	*	*
8B-\L	.	4f/	8dd\L	.	.	.	.	8d\	non	.	.	1ryy	1ryy
8B-\	.	.	8ff\J	.	.	.	.	8f\	non	.	.	.	.
*	*	*	*	*	*	*	*	*	*Xij	*	*	*	*
8G\	.	8g/L	16bb-\LL	.	.	.	.	16b-\LL	com-	.	.	.	.
.	.	.	16aa\	.	.	.	.	16a\JJ	.	.	.	.	.
8B-\J	.	8g/J	16gg\	.	.	.	.	16g\LL	-mo-	.	.	.	.
.	.	.	16ff\JJ	.	.	.	.	16f\JJ	.	.	.	.	.
!LO:TX:t=P:problem:mixed beam	!	!	!	!	!	!	!	!	!	!	!	!	!
8c\L	6	4e/	16ee\LL	.	.	.	.	16e\	-ve-	.	.	.	.
.	.	.	16dd\J	.	.	.	.	16d\	-bi-	.	.	.	.
8C/	.	.	8cc\J	.	.	.	.	8c\	-tur	.	.	.	.
8C/	6	8r	8r	.	.	.	.	8r	.	.	.	.	.
8C/J	.	8f/	8cc\	.	.	.	.	8c\	do-	.	.	.	.
=30	=30	=30	=30	=30	=30	=30	=30	=30	=30	=30	=30	=30	=30
8AA/L	6\	8f/L	8dd\L	00r	.	1r	.	8d\	-nec	00r	.	1ryy	1ryy
8GG/J	.	8b-/	8ee\	.	.	.	.	8e\	des-	.	.	.	.
8FF/L	.	8a/	8ff\	.	.	.	.	8f\	-pi-	.	.	.	.
8EE/J	.	8b-/J	8gg\J	.	.	.	.	16g\	-ci-	.	.	.	.
.	.	.	.	.	.	.	.	16g\	-at	.	.	.	.
8FF/L	.	4a/	4aa\	.	.	.	.	8a\	i-	.	.	.	.
8GG/	.	.	.	.	.	.	.	8b-\	-ni-	.	.	.	.
8AA/	.	4r	4r	.	.	.	.	8cc\	-mi-	.	.	.	.
8C/J	-	.	.	.	.	.	.	8f\	-cos	.	.	.	.
!	!	!	!	!	!	!	!	!LO:LB:g=original	!	!	!	!	!
=31	=31	=31	=31	=31	=31	=31	=31	=31	=31	=31	=31	=31	=31
!	!	!LO:TX:a:t=5	!	!	!	!	!	!	!	!	!	!	!
8BB-/L	.	00r	00r	.	.	2r	.	8f\L	su-	.	.	1ryy	1ryy
8GG/	.	.	.	.	.	.	.	16g\L	.	.	.	.	.
.	.	.	.	.	.	.	.	16f\JJ	.	.	.	.	.
8C/	.	.	.	.	.	.	.	4em\	.	.	.	.	.
8CC/J	.	.	.	.	.	.	.	.	.	.	.	.	.
8FF/L	.	.	.	.	.	4r	.	4f\	-os	.	.	.	.
8GG/	.	.	.	.	.	.	.	.	.	.	.	.	.
8AA/	.	.	.	.	.	8r	.	8r	.	.	.	.	.
8FF/J	.	.	.	.	.	8c\	dis-	8a\	dis-	.	.	.	.
!	!	!	!	!	!	!LO:LB:g=original	!	!	!	!	!	!	!
=32	=32	=32	=32	=32	=32	=32	=32	=32	=32	=32	=32	=32	=32
4FF/	.	.	.	.	.	8c\	-per-	8a\	-per-	.	.	1ryy	1ryy
.	.	.	.	.	.	16B-\LL	-sit	16g\LL	-sit	.	.	.	.
.	.	.	.	.	.	16A\JJ	.	16f\JJ	.	.	.	.	.
8r	.	.	.	.	.	8B-\	de-	8g\	de-	.	.	.	.
8C/	.	.	.	.	.	16c\	-dit	16a\	-dit	.	.	.	.
.	.	.	.	.	.	16B-\	pau-	16a\	pau-	.	.	.	.
8G\L	.	.	.	.	.	8A/	-pe-	8f\	-pe-	.	.	.	.
8G\	.	.	.	.	.	16G/	-ri-	16f\	-ri-	.	.	.	.
.	.	.	.	.	.	16F/	-bus	16f\	-bus	.	.	.	.
8A\	.	.	.	.	.	8r	.	8r	.	.	.	.	.
8F\J	.	.	.	.	.	8c\	ju-	8a\	ju-	.	.	.	.
!LO:LB:g=original	!	!	!	!	!	!	!	!	!	!	!	!	!
=33	=33	=33	=33	=33	=33	=33	=33	=33	=33	=33	=33	=33	=33
8F\L	6 4	.	.	.	.	8d\	-sti-	8b-\	-sti-	.	.	1ryy	1ryy
8F\	.	.	.	.	.	16c\	-ti-	16a\	-ti-	.	.	.	.
.	.	.	.	.	.	16c\	-a	16a\	-a	.	.	.	.
8F\	3	.	.	.	.	8B-\	e-	8g\	e-	.	.	.	.
8E\J	2	.	.	.	.	8c\	-jus	8g\	-jus	.	.	.	.
!	!	!	!	!	!	!	!	!LO:LB:g=original	!	!	!	!	!
8F\L	.	.	.	.	.	8A/	ma-	8f\	ma-	.	.	.	.
8G\	.	.	.	.	.	8F/	-net	8f\	-net	.	.	.	.
8A\	.	.	.	.	.	8r	.	8r	.	.	.	.	.
8F\J	.	.	.	.	.	8c\	in	8a\	in	.	.	.	.
!	!	!	!	!	!	!LO:PB:g=original	!	!	!	!	!	!	!
=34	=34	=34	=34	=34	=34	=34	=34	=34	=34	=34	=34	=34	=34
8G\L	6	.	.	0r	.	8d\	sae-	8b-\	sae-	0r	.	1ryy	1ryy
8F\	.	.	.	.	.	16c\	-cu-	16a\	-cu-	.	.	.	.
.	.	.	.	.	.	16c\	-lum	16a\	-lum	.	.	.	.
8G\	7	.	.	.	.	8.B-\	sae-	8.g\	sae-	.	.	.	.
8C\J	.	.	.	.	.	.	.	.	.	.	.	.	.
.	.	.	.	.	.	16B-\	-cu-	16g\	-cu-	.	.	.	.
8F\L	.	.	.	.	.	4A\	-li	4f\	-li	.	.	.	.
8G\	.	.	.	.	.	.	.	.	.	.	.	.	.
8A\	.	.	.	.	.	8r	.	8r	.	.	.	.	.
8F\J	.	.	.	.	.	16A/	cor-	16f\	cor-	.	.	.	.
.	.	.	.	.	.	16A/	-nu	16f\	-nu	.	.	.	.
=35	=35	=35	=35	=35	=35	=35	=35	=35	=35	=35	=35	=35	=35
8C/L	6	1r	1r	.	.	8G/	e-	8e\	e-	.	.	1ryy	1ryy
8C/	6	.	.	.	.	8c\	-jus	8a\	-jus	.	.	.	.
8C/	7 5	.	.	.	.	8B-\	e-	8g\	e-	.	.	.	.
8C/J	6 4	.	.	.	.	8A\	-xul-	8f\	-xal-	.	.	.	.
4C/	.	.	.	.	.	8G/	-ta-	8e\	-ta-	.	.	.	.
.	.	.	.	.	.	8c\	-bi-	8a\	-bi-	.	.	.	.
8r	.	.	.	.	.	8B-\	-tur	8g\	-tur	.	.	.	.
8C/	6 4	.	.	.	.	8A\	in	8f\	in	.	.	.	.
!	!	!LO:PB:g=original	!LO:LB:g=original	!	!	!	!	!LO:LB:g=original	!	!	!	!	!
=36	=36	=36	=36	=36	=36	=36	=36	=36	=36	=36	=36	=36	=36
8C/L	.	2r	2r	2r	.	8G/L	glo-	4.f\	glo-	2r	.	1ryy	1ryy
8FF/	.	.	.	.	.	16A/L	.	.	.	.	.	.	.
.	.	.	.	.	.	16G/JJ	.	.	.	.	.	.	.
8C/	.	.	.	.	.	8.G/	.	.	.	.	.	.	.
8CC/J	.	.	.	.	.	.	.	8e\	-ri-	.	.	.	.
.	.	.	.	.	.	16F/	-ri-	.	.	.	.	.	.
4FF/	.	16a/LL	16ff\LL	4r	.	4F/	-a	4f\	-a	4r	.	.	.
.	.	16f/	16cc\	.	.	.	.	.	.	.	.	.	.
.	.	16a/	16ff\	.	.	.	.	.	.	.	.	.	.
.	.	16cc/JJ	16aa\JJ	.	.	.	.	.	.	.	.	.	.
!	!	!	!	!	!	!LO:LB:g=original	!	!	!	!	!	!	!
8r	.	16a/LL	16ff\LL	8r	.	8r	.	8r	.	8r	.	.	.
.	.	16f/	16cc\	.	.	.	.	.	.	.	.	.	.
8F\	.	16a/	16ff\	8F\	pec-	8c\	pec-	8f\	pec-	8cc\	pec-	.	.
.	.	16cc/JJ	16aa\JJ	.	.	.	.	.	.	.	.	.	.
=37	=37	=37	=37	=37	=37	=37	=37	=37	=37	=37	=37	=37	=37
8E\L	6	8cc\L	16gg\LL	8E\	-ca-	8c\	-ca-	8g\	-ca-	8cc\	-ca-	1ryy	1ryy
.	.	.	16cc\	.	.	.	.	.	.	.	.	.	.
8E\	.	8cc\	16gg\	16E\	-tor	16c\	-tor	16g\	-tor	16cc\	-tor	.	.
.	.	.	16bb-\JJ	16E\	vi-	16c\	vi-	16g\	vi-	16cc\	vi-	.	.
8E\	.	8cc\	16gg\LL	8E\	-de-	8c\	-de-	8g\	-de-	8cc\	-de-	.	.
.	.	.	16cc\	.	.	.	.	.	.	.	.	.	.
8E\J	.	8cc\J	16gg\	16E\	-bit	16c\	-bit	16g\	-bit	16cc\	-bit	.	.
.	.	.	16bb-\JJ	16E\	et	16c\	et	16g\	et	16cc\	et	.	.
!LO:LB:g=original	!	!	!	!	!	!	!	!	!	!	!	!	!
4F\	.	16ff\LL	16aa\LL	8F\	i-	8c\	i-	8a\	i-	8cc\	i-	.	.
.	.	16cc\	16ff\	.	.	.	.	.	.	.	.	.	.
.	.	16ff\	16aa\	8F\	-ras-	8c\	-ras-	8a\	-ras-	8cc\	-ras-	.	.
.	.	16aa\JJ	16ccc\JJ	.	.	.	.	.	.	.	.	.	.
8r	.	16ff\LL	16aa\LL	8F\	-ce-	8c\	-ce-	8a\	-ce-	8cc\	-ce-	.	.
.	.	16cc\	16ff\	.	.	.	.	.	.	.	.	.	.
8F\	.	16ff\	16aa\	8F\	-tur	8c\	-tur	8a\	-tur	8cc\	-tur	.	.
.	.	16aa\JJ	16ccc\JJ	.	.	.	.	.	.	.	.	.	.
!	!	!	!	!LO:LB:g=original	!	!	!	!	!	!	!	!	!
=38	=38	=38	=38	=38	=38	=38	=38	=38	=38	=38	=38	=38	=38
8E\L	6	8gg\L	16gg\LL	8C/	den-	8c\	den-	8g\	den-	8cc\	den-	1ryy	1ryy
.	.	.	16cc\	.	.	.	.	.	.	.	.	.	.
8C\	.	8ee\	16cc\	16C/	-ti-	16c\	-ti-	16g\	-ti-	16ee\	-ti-	.	.
.	.	.	16cc\JJ	16C/	-bus	16c\	-bus	16g\	-bus	16ee\	-bus	.	.
!	!	!	!	!	!	!	!	!	!	!LO:LB:g=original	!	!	!
8C\	.	8ee\	16cc\LL	8C/	su-	8c\	su-	8g\	su-	8ee\	su-	.	.
.	.	.	16cc\	.	.	.	.	.	.	.	.	.	.
8E\J	.	8gg\J	16cc\	8E\	-is	8c\	-is	8g\	-is	8cc\	-is	.	.
.	.	.	16cc\JJ	.	.	.	.	.	.	.	.	.	.
8F\L	.	16ff\LL	16cc\LL	8F\	fre-	8c\	fre-	8a\	fre-	8a\	fre-	.	.
.	.	16cc\	16ff\	.	.	.	.	.	.	.	.	.	.
8A\	6	16cc\	16ee\	8A\	-met	8c\	-met	8a\	-met	8b-\	-met	.	.
.	.	16cc\JJ	16ff\JJ	.	.	.	.	.	.	.	.	.	.
8A\	.	16ff\LL	16cc\LL	8A\	et	8f\	et	8a\	et	8cc\	et	.	.
.	.	16cc\	16ff\	.	.	.	.	.	.	.	.	.	.
8G\J	.	16cc\	16ff\	8F\	ta-	8c\	ta-	8a\	et-	8a\	ta-	.	.
.	.	16cc\JJ	16ff\JJ	.	.	.	.	.	.	.	.	.	.
!	!	!	!LO:LB:g=original	!	!	!	!	!LO:LB:g=original	!	!	!	!	!
=39	=39	=39	=39	=39	=39	=39	=39	=39	=39	=39	=39	=39	=39
4B-\	.	16b-/LL	16dd\LL	8B-\	-bes-	8B-\	-bes-	8f\	-bes-	8dd\	-bes-	1ryy	1ryy
.	.	16f/	16b-\	.	.	.	.	.	.	.	.	.	.
.	.	16f/	16dd\	8B-\	-cet	8B-\	-cet	8f\	-cet	8dd\	-cet	.	.
.	.	16b-/JJ	16ff\JJ	.	.	.	.	.	.	.	.	.	.
!	!	!LO:LB:g=original	!LO:TX:t=P:problem:mixed beam	!	!	!LO:LB:g=original	!	!	!	!	!	!	!
8r	.	16dd\LL	16bb-\LL	4r	.	4r	.	4r	.	4r	.	.	.
.	.	16dd\	16b-/	.	.	.	.	.	.	.	.	.	.
8G\	.	16dd\	16b-/	.	.	.	.	.	.	.	.	.	.
.	.	16dd\JJ	16b-/JJ	.	.	.	.	.	.	.	.	.	.
8G\L	.	8bn\L	16ee\LL	8G\	de-	8d\	de-	8g\	de-	8bn\	de-	.	.
.	.	.	16gg\	.	.	.	.	.	.	.	.	.	.
8G\	.	8dd\	16ff\	8Bn\	-si-	8Bn\	-si-	8g\	-si-	8dd\	-si-	.	.
.	.	.	16gg\JJ	.	.	.	.	.	.	.	.	.	.
8Bn\	.	8dd\	16dd\LL	8B\	-de-	8B\	-de-	8g\	-de-	8dd\	-de-	.	.
.	.	.	16gg\	.	.	.	.	.	.	.	.	.	.
8G\J	.	8b\J	16ff\	16G\	-ri-	16d\	-ri-	16g\	-ri-	16bn\	-ri-	.	.
.	.	.	16gg\JJ	16G\	-um	16d\	-um	16g\	-um	16b\	-um	.	.
=40	=40	=40	=40	=40	=40	=40	=40	=40	=40	=40	=40	=40	=40
8c\L	.	8g/L	16ee\LL	4c\	pec-	4.c\	pec-	4.g\	pec-	4.ee\	pec-	1ryy	1ryy
.	.	.	16cc\	.	.	.	.	.	.	.	.	.	.
8c\	.	8g/	16ee\	.	.	.	.	.	.	.	.	.	.
.	.	.	16gg\JJ	.	.	.	.	.	.	.	.	.	.
!	!	!	!LO:TX:t=P:problem:mixed beam	!	!	!	!	!	!	!	!	!	!
8B-X\	4 2	8g/	16ccc\LL	4B-X\	-ca-	.	.	.	.	.	.	.	.
.	.	.	16cc/	.	.	.	.	.	.	.	.	.	.
8B-\J	.	8g/J	16cc/	.	.	8c\	-ca-	8g\	-ca-	8ee\	-ca-	.	.
.	.	.	16cc/JJ	.	.	.	.	.	.	.	.	.	.
!	!	!	!LO:TX:t=P:problem:mixed beam	!	!	!	!	!	!	!LO:TX:t=P:problem:mixed beam	!	!	!
8A\L	6	8cc\L	16ff\LL	8A\L	-to-	8c\L	-to-	4a\	-to-	8ff\L	-to-	.	.
.	.	.	16f/	.	.	.	.	.	.	.	.	.	.
8G\	.	8b-X\	16f/	8G\J	.	8B-\J	.	.	.	8f/J	.	.	.
.	.	.	16f/JJ	.	.	.	.	.	.	.	.	.	.
!	!	!	!LO:TX:t=P:problem:mixed beam	!LO:LB:g=original	!	!	!	!	!	!	!	!	!
8F\	.	8a\	16f/LL	8F\	-rum	8A\	-rum	8a\	-rum	8cc\	-rum	.	.
.	.	.	16ff\	.	.	.	.	.	.	.	.	.	.
8A\J	.	8cc\J	16ff\	8A\	.	8c\	pe-	8a\	pe-	8cc\	pe-	.	.
.	.	.	16ff\JJ	.	.	.	.	.	.	.	.	.	.
=41	=41	=41	=41	=41	=41	=41	=41	=41	=41	=41	=41	=41	=41
!LO:TX:t=P:problem:mixed beam	!	!	!LO:N:vis=16	!LO:TX:t=P:problem:mixed beam	!	!	!	!	!	!	!	!	!
8c\L	.	8g/L	8ee\L	8c\L	pe-	2c\	-ri-	8e\L	-ri-	8g\L	-ri-	1ryy	1ryy
!	!	!	!LO:N:vis=16	!	!	!	!	!	!	!	!	!	!
8F\	.	8g/	8cc\	8A\	.	.	.	8f\J	.	8a\J	.	.	.
!	!	!	!LO:N:vis=16	!	!	!	!	!	!	!LO:LB:g=original	!	!	!
8c\	.	8.g/	8ff\	8c\	-ri-	.	.	4e\	.	4g\	.	.	.
!	!	!	!LO:N:vis=16	!	!	!	!	!	!	!	!	!	!
8C/J	.	.	8gg\J	8C/J	.	.	.	.	.	.	.	.	.
.	.	16a/Jk	.	.	.	.	.	.	.	.	.	.	.
4F\	.	4a/	8.ee\L	4F\	-bit	4c\	-bit	8f\	-bit	8a\	-bit	.	.
.	.	.	.	.	.	.	.	8r	.	8r	.	.	.
.	.	.	16ff\Jk	.	.	.	.	.	.	.	.	.	.
8r	.	8r	8r	8r	.	8r	.	4f\	pe-	4cc\	pe-	.	.
8F\	.	8a/	8ff\	8F\	pe-	8c\	pe-	.	.	.	.	.	.
!LO:LB:g=original	!	!	!LO:LB:g=original	!	!	!	!	!	!	!	!	!	!
=42	=42	=42	=42	=42	=42	=42	=42	=42	=42	=42	=42	=42	=42
*2\right	*	*2\right	*2\right	*2\right	*	*2\right	*	*2\right	*	*2\right	*	*	*
2B-\	.	2dd\	2ff\	2B-\	-ri-	2B-\	-ri-	2f\	-ri-	2dd\	-ri-	1ryy	1ryy
2F\	.	2cc\	2ff\	2F\	-bit.	2A\	-bit.	2f\	-bit.	2cc\	-bit.	.	.
!	!	!LO:LB:g=original	!	!	!	!LO:LB:g=original	!	!LO:LB:g=original	!	!	!	!	!
=43||	=43||	=43||	=43||	=43||	=43||	=43||	=43||	=43||	=43||	=43||	=43||	=43||	=43||
*M3/4	*	*M3/4	*M3/4	*M3/4	*	*M3/4	*	*M3/4	*	*M3/4	*	*M3/4	*M3/4
*k[b-e-]	*	*	*	*	*	*	*	*	*	*	*	*	*
!LO:TX:b:i:t=Gloria	!	!	!	!	!	!	!	!	!	!	!	!	!
!LO:TX:a:i:t=Solo	!	!LO:TX:a:t=Gloria Tacet	!LO:TX:a:t=Gloria Tacet	!LO:TX:a:t=Gloria Tacet	!	!	!	!LO:TX:a:t=Gloria Tacet	!	!LO:TX:a:B:t=adagio	!	!	!LO:TX:a:B:t=Adagio
4BB-/	.	2.ryy	2.ryy	2.ryy	.	4B-\	Glo-	2.ryy	.	2.r	.	2.ryy	2.ryy
4r	.	.	.	.	.	4d\	-ri-	.	.	.	.	.	.
4BB-/	.	.	.	.	.	4B-\	-a	.	.	.	.	.	.
=44	=44	=44	=44	=44	=44	=44	=44	=44	=44	=44	=44	=44	=44
4F\	.	2.ryy	2.ryy	2.ryy	.	4B-\	Pa-	2.ryy	.	4cc\	Glo-	2.ryy	2.ryy
4r	.	.	.	.	.	4B-\	-tri	.	.	4dd\	-ri-	.	.
4FF/	-7	.	.	.	.	4A\	et	.	.	4ee-X\	-a	.	.
=45	=45	=45	=45	=45	=45	=45	=45	=45	=45	=45	=45	=45	=45
4BB-/	.	2.ryy	2.ryy	2.ryy	.	4.B-\	Fi-	2.ryy	.	4.dd\	Fi-	2.ryy	2.ryy
4D/	6	.	.	.	.	.	.	.	.	.	.	.	.
.	.	.	.	.	.	8B-\	-li-	.	.	8dd\	-li-	.	.
4BB-/	.	.	.	.	.	4B-\	-o	.	.	4dd\	-o	.	.
=46	=46	=46	=46	=46	=46	=46	=46	=46	=46	=46	=46	=46	=46
4D\	.	2.ryy	2.ryy	2.ryy	.	4r	.	2.ryy	.	2.r	.	2.ryy	2.ryy
4r	.	.	.	.	.	4B-\	et	.	.	.	.	.	.
4D\	.	.	.	.	.	4F/	Spi-	.	.	.	.	.	.
=47	=47	=47	=47	=47	=47	=47	=47	=47	=47	=47	=47	=47	=47
2.E-X\	.	2.ryy	2.ryy	2.ryy	.	4.G/	-ri-	2.ryy	.	4r	.	2.ryy	2.ryy
.	.	.	.	.	.	.	.	.	.	4ee-X\	et	.	.
.	.	.	.	.	.	8G/	-tu-	.	.	.	.	.	.
.	.	.	.	.	.	4G/	-i	.	.	4cc\	Spi-	.	.
=48	=48	=48	=48	=48	=48	=48	=48	=48	=48	=48	=48	=48	=48
2E\	4 2	2.ryy	2.ryy	2.ryy	.	2F/	San-	2.ryy	.	4.a\	-ri-	2.ryy	2.ryy
.	.	.	.	.	.	.	.	.	.	8a\	-tu-	.	.
4D\	6	.	.	.	.	4B-\	.	.	.	4b-\	-i	.	.
!	!	!	!	!	!	!	!	!	!	!LO:LB:g=original	!	!	!
=49	=49	=49	=49	=49	=49	=49	=49	=49	=49	=49	=49	=49	=49
8D\L	.	2.ryy	2.ryy	2.ryy	.	2B-\	.	2.ryy	.	8dd\L	San-	2.ryy	2.ryy
8E-X\J	.	.	.	.	.	.	.	.	.	8cc\J	.	.	.
4F\	6 4	.	.	.	.	.	.	.	.	4dd\	.	.	.
4FF/	5 3	.	.	.	.	4A\	.	.	.	4cc\	.	.	.
!LO:LB:g=original	!	!	!	!	!	!	!	!	!	!	!	!	!
=50	=50	=50	=50	=50	=50	=50	=50	=50	=50	=50	=50	=50	=50
2.BB-/	.	2.ryy	2.ryy	2.ryy	.	2B-\	-cto.	2.ryy	.	2.b-\	-cto.	2.ryy	2.ryy
.	.	.	.	.	.	4r	.	.	.	.	.	.	.
!	!	!	!LO:LB:g=original	!LO:LB:g=original	!	!LO:LB:g=original	!	!	!	!	!	!	!
=51||	=51||	=51||	=51||	=51||	=51||	=51||	=51||	=51||	=51||	=51||	=51||	=51||	=51||
*M2/2	*	*M2/2	*M2/2	*M2/2	*	*M2/2	*	*M2/2	*	*M2/2	*	*M2/2	*M2/2
*met(c|)	*	*met(c|)	*met(c|)	*met(c|)	*	*met(c|)	*	*met(c|)	*	*met(c|)	*	*met(c|)	*met(c|)
*k[b-e]	*	*	*	*	*	*	*	*	*	*	*	*	*
!	!	!	!LO:TX:b:i:t=Sicut erat	!	!	!	!	!	!	!	!	!	!
!LO:TX:b:i:t=Sicut erat	!	!LO:TX:b:i:t=Sicut erat	!LO:TX:a:B:t=All(egr)o	!	!	!	!	!	!	!	!	!	!LO:TX:a:B:t=Allegro
2F\	.	8ff\L	8ff\L	1r	.	1r	.	1r	.	1r	.	1ryy	1ryy
.	.	8cc\	8cc\	.	.	.	.	.	.	.	.	.	.
.	.	8dd\	8dd\	.	.	.	.	.	.	.	.	.	.
.	.	8ee\J	8ee\J	.	.	.	.	.	.	.	.	.	.
4r	.	8ff\L	8ff\L	.	.	.	.	.	.	.	.	.	.
.	.	8gg\	8gg\	.	.	.	.	.	.	.	.	.	.
4c\	.	8aa\	8aa\	.	.	.	.	.	.	.	.	.	.
.	.	8gg\J	8gg\J	.	.	.	.	.	.	.	.	.	.
=52	=52	=52	=52	=52	=52	=52	=52	=52	=52	=52	=52	=52	=52
2F\	.	8a/L	8ff\L	2r	.	2r	.	2r	.	2r	.	1ryy	1ryy
.	.	8f/	8cc\	.	.	.	.	.	.	.	.	.	.
.	.	8a/	8ff\	.	.	.	.	.	.	.	.	.	.
.	.	8cc/J	8aa\J	.	.	.	.	.	.	.	.	.	.
4r	.	8a/L	8ff\L	4r	.	4r	.	4r	.	4r	.	.	.
.	.	8f/	8cc\	.	.	.	.	.	.	.	.	.	.
4F\	.	8a/	8ff\	8F\	Si-	8c\	Si-	8f\	Si-	8cc\	Si-	.	.
.	.	8cc/J	8aa\J	8F\	-cut	8c\	-cut	8f\	-cut	8cc\	-cut	.	.
=53	=53	=53	=53	=53	=53	=53	=53	=53	=53	=53	=53	=53	=53
4E\	6	4cc\	8gg\L	4E\	e-	4c\	e-	4g\	e-	4cc\	e-	1ryy	1ryy
.	.	.	8cc\	.	.	.	.	.	.	.	.	.	.
4E\	.	4cc\	8gg\	4E\	-rat	4c\	-rat	4g\	-rat	4cc\	-rat	.	.
.	.	.	8bb-\J	.	.	.	.	.	.	.	.	.	.
4E\	.	4cc\	8gg\L	4E\	in	4c\	in	4g\	in	4cc\	in	.	.
.	.	.	8cc\	.	.	.	.	.	.	.	.	.	.
4E\	.	4cc\	8gg\	4E\	prin-	4c\	prin-	4g\	prin-	4cc\	prin-	.	.
.	.	.	8bb-\J	.	.	.	.	.	.	.	.	.	.
=54	=54	=54	=54	=54	=54	=54	=54	=54	=54	=54	=54	=54	=54
2F\	.	8ff\L	8aa\L	4F\	-ci-	4c\	-ci-	4a\	-ci-	4cc\	-ci-	1ryy	1ryy
.	.	8cc\	8ff\	.	.	.	.	.	.	.	.	.	.
.	.	8ff\	8aa\	4F\	-pi-	4c\	-pi-	4a\	-pi-	4cc\	-pi-	.	.
.	.	8aa\J	8ccc\J	.	.	.	.	.	.	.	.	.	.
4r	.	8ff\L	8aa\L	4F\	-o	4c\	-o	4a\	-o	4cc\	-o	.	.
.	.	8cc\	8ff\	.	.	.	.	.	.	.	.	.	.
4F\	.	8ff\	8aa\	4F\	et	4c\	et	4a\	et	4cc\	et	.	.
.	.	8aa\J	8ccc\J	.	.	.	.	.	.	.	.	.	.
!	!	!	!LO:LB:g=original	!	!	!	!	!LO:LB:g=original	!	!	!	!	!
=55	=55	=55	=55	=55	=55	=55	=55	=55	=55	=55	=55	=55	=55
4E\	6	4gg\	8gg\L	4E\	nunc	4c\	n(unc)	4g\	nunc	4cc\	nunc	1ryy	1ryy
.	.	.	8cc\	.	.	.	.	.	.	.	.	.	.
4C/	.	4ee\	8cc\	4C/	et	4c\	et	4g\	et	4ee\	et	.	.
.	.	.	8cc\J	.	.	.	.	.	.	.	.	.	.
4C/	.	4ee\	8cc\L	4C/	sem-	4c\	sem-	4g\	sem-	4ee\	sem-	.	.
.	.	.	8cc\	.	.	.	.	.	.	.	.	.	.
4E\	.	4gg\	8cc\	4E\	-per	4c\	-per	4g\	-per	4cc\	-per	.	.
.	.	.	8cc\J	.	.	.	.	.	.	.	.	.	.
!	!	!LO:LB:g=original	!	!	!	!	!	!	!	!LO:LB:g=original	!	!	!
=56	=56	=56	=56	=56	=56	=56	=56	=56	=56	=56	=56	=56	=56
4F\	.	8ff\L	8cc\L	(4F\	et	(2d\	et	2a\	et	(4a\	et	1ryy	1ryy
.	.	8cc\	8ff\	.	.	.	.	.	.	.	.	.	.
4A\	6	8cc\	8ee\	4A\)	.	.	.	.	.	4cc\)	.	.	.
.	.	8cc\J	8ff\J	.	.	.	.	.	.	.	.	.	.
4A\	.	8ff\L	8cc\L	(4A\	in	4f\)	.	2a\	in	(4cc\	in	.	.
.	.	8cc\	8ff\	.	.	.	.	.	.	.	.	.	.
4F\	.	8cc\	8ee\	4F\)	.	4c\	in	.	.	4a\)	.	.	.
.	.	8cc\J	8ff\J	.	.	.	.	.	.	.	.	.	.
!LO:LB:g=original	!	!	!	!	!	!	!	!	!	!	!	!	!
=57	=57	=57	=57	=57	=57	=57	=57	=57	=57	=57	=57	=57	=57
2B-\	.	8b-/L	8dd\L	4B-\	sae-	4B-\	sae-	4f\	sae-	4dd\	sae-	1ryy	1ryy
.	.	8f/	8b-\	.	.	.	.	.	.	.	.	.	.
.	.	8f/	8dd\	8B-\	-cu-	8B-\	-cu-	8f\	-cu-	8dd\	-cu-	.	.
.	.	8b-/J	8ff\J	8B-\	-la	8B-\	-la	8f\	-la	8dd\	-la	.	.
!	!	!	!LO:TX:t=P:problem:mixed beam	!LO:LB:g=original	!	!	!	!	!	!	!	!	!
4r	.	8dd\L	8bb-\L	2r	.	2r	.	2r	.	2r	.	.	.
.	.	8dd\	8b-/	.	.	.	.	.	.	.	.	.	.
4G\	.	8dd\	8b-/	.	.	.	.	.	.	.	.	.	.
.	.	8dd\J	8b-/J	.	.	.	.	.	.	.	.	.	.
!	!	!	!	!	!	!LO:LB:g=original	!	!	!	!	!	!	!
=58	=58	=58	=58	=58	=58	=58	=58	=58	=58	=58	=58	=58	=58
4G\	.	8bn\L	8dd\L	4G\	sae-	4d\	sae-	4g\	sae-	4bn\	sae-	1ryy	1ryy
.	.	8dd\	8gg\	.	.	.	.	.	.	.	.	.	.
4Bn\	.	8dd\	8ff\	4Bn\	-cu-	4Bn\	-cu-	4g\	-cu-	4dd\	-cu-	.	.
.	.	8b\J	8gg\J	.	.	.	.	.	.	.	.	.	.
4B\	.	8b\L	8dd\L	4B\	-lo-	4B\	-lo-	4g\	-lo-	4dd\	-lo-	.	.
.	.	8dd\	8gg\	.	.	.	.	.	.	.	.	.	.
4G\	.	8dd\	8ff\	4G\	-rum	4d\	-rum	4g\	-rum	4b\	-rum	.	.
.	.	8b\J	8gg\J	.	.	.	.	.	.	.	.	.	.
=59	=59	=59	=59	=59	=59	=59	=59	=59	=59	=59	=59	=59	=59
4c\	.	4g/	8ee\L	2.c\	a-	2.c\	a-	2.g\	a-	2.ee\	a-	1ryy	1ryy
.	.	.	8cc\	.	.	.	.	.	.	.	.	.	.
4c\	.	4g/	8ee\	.	.	.	.	.	.	.	.	.	.
.	.	.	8gg\J	.	.	.	.	.	.	.	.	.	.
4B-X\	.	4g/	8ccc\L	.	.	.	.	.	.	.	.	.	.
.	.	.	8cc\	.	.	.	.	.	.	.	.	.	.
4B-\	.	4g/	8cc\	4c\	-men	4c\	-men	4g\	-men	4ee\	-men	.	.
.	.	.	8cc\J	.	.	.	.	.	.	.	.	.	.
!	!	!	!LO:LB:g=original	!	!	!	!	!	!	!	!	!	!
=60	=60	=60	=60	=60	=60	=60	=60	=60	=60	=60	=60	=60	=60
*	*	*	*	*	*	*	*	*	*ij	*	*	*	*
4A\	6	4cc\	8ff\L	4A\	a-	(4c\	a-	2.a\	a-	4ff\	a-	1ryy	1ryy
.	.	.	8f/	.	.	.	.	.	.	.	.	.	.
4G\	.	4b-\	8f/	4G\	.	4B-\)	.	.	.	4f/	.	.	.
.	.	.	8f/J	.	.	.	.	.	.	.	.	.	.
!	!	!	!LO:TX:a:t=f	!	!	!	!	!	!	!	!	!	!
4F\	.	4a\	8f/L	4F\	-men	(4A\	-men	.	.	4f/	-men	.	.
!	!	!	!LO:TX:a:t=f	!	!	!	!	!	!	!	!	!	!
.	.	.	8f/	.	.	.	.	.	.	.	.	.	.
!	!	!	!LO:TX:a:t=f	!	!	!	!	!	!	!	!	!	!
4A\	.	4cc\	8f/	4A\	.	4c\)	.	4a\	men	4cc\	a-	.	.
!	!	!	!LO:TX:a:t=f	!	!	!	!	!	!	!	!	!	!
.	.	.	8f/J	.	.	.	.	.	.	.	.	.	.
*	*	*	*	*	*	*	*	*	*Xij	*	*	*	*
=61	=61	=61	=61	=61	=61	=61	=61	=61	=61	=61	=61	=61	=61
*	*	*	*	*	*	*	*ij	*	*	*	*	*	*
4c\	.	4g/	8ee\L	4c\	a-	1c	a-	4e\	a-	4g\	.	1ryy	1ryy
.	.	.	8cc\	.	.	.	.	.	.	.	.	.	.
4F\	.	4a/	8ff\	4F\	.	.	.	4f\	.	4a\	.	.	.
.	.	.	8gg\J	.	.	.	.	.	.	.	.	.	.
!	!	!LO:LB:g=original	!	!	!	!	!	!	!	!	!	!	!
4c\	.	4.a/	4.ee\	4c\	.	.	.	2e\	.	2g\	.	.	.
4C/	.	.	.	4C/	.	.	.	.	.	.	.	.	.
.	.	8g/	8ff\	.	.	.	.	.	.	.	.	.	.
!	!	!	!	!	!	!	!	!LO:LB:g=original	!	!	!	!	!
=62	=62	=62	=62	=62	=62	=62	=62	=62	=62	=62	=62	=62	=62
2F\	.	2a/	2ff\	2F\	-men	2c\	-men	2f\	-men	2a\	-men	1ryy	1ryy
*	*	*	*	*	*	*	*Xij	*	*	*	*	*	*
4r	.	4r	4r	4r	.	4r	.	4r	.	4r	.	.	.
4F\	.	4a/	4ff\	4F\	a-	4c\	a-	4f\	a-	4cc\	a-	.	.
=63	=63	=63	=63	=63	=63	=63	=63	=63	=63	=63	=63	=63	=63
1B-	.	1dd	1ff	1B-	.	1B-	.	1f	.	1dd	.	1ryy	1ryy
=64	=64	=64	=64	=64	=64	=64	=64	=64	=64	=64	=64	=64	=64
1F	.	1cc	1ff	1F	-men.	1A	-men.	1f	-men.	1cc	-men.	1ryy	1ryy
==	==	==	==	==	==	==	==	==	==	==	==	==	==
*-	*-	*-	*-	*-	*-	*-	*-	*-	*-	*-	*-	*-	*-
!!!system-decoration: [(s1,s2)][(s3,s4,s5,s6)][(s7,s8)][(s9)]
!!!ENC: Filip Voros
!!!END: 2024-05-14
!!!ENC: Leszek Kubiak
!!!END: 2024-08-06
